svgs/:script_debugger:.svg

<?xml version="1.0" encoding="UTF-8" standalone="no"?>
<!-- Uploaded to: SVG Repo, www.svgrepo.com, Generator: SVG Repo Mixer Tools -->

<svg
   width="24"
   height="24"
   viewBox="0 0 0.72 0.72"
   version="1.1"
   id="svg2"
   sodipodi:docname=":script_debugger:.svg"
   inkscape:version="1.4.3 (0d15f75, 2025-12-25)"
   xmlns:inkscape="http://www.inkscape.org/namespaces/inkscape"
   xmlns:sodipodi="http://sodipodi.sourceforge.net/DTD/sodipodi-0.dtd"
   xmlns="http://www.w3.org/2000/svg"
   xmlns:svg="http://www.w3.org/2000/svg">
  <defs
     id="defs2" />
  <sodipodi:namedview
     id="namedview2"
     pagecolor="#505050"
     bordercolor="#ffffff"
     borderopacity="1"
     inkscape:showpageshadow="0"
     inkscape:pageopacity="0"
     inkscape:pagecheckerboard="1"
     inkscape:deskcolor="#505050"
     inkscape:zoom="9.1978562"
     inkscape:cx="14.133728"
     inkscape:cy="29.843911"
     inkscape:window-width="1710"
     inkscape:window-height="1044"
     inkscape:window-x="0"
     inkscape:window-y="40"
     inkscape:window-maximized="0"
     inkscape:current-layer="svg2" />
  <path
     d="m 0.13695533,0.44659346 c -0.0267956,-0.0774095 -0.0178637,-0.13695533 -0.0148864,-0.16077365 0.071455,-0.0446593 0.15779636,-0.0595458 0.23818318,-0.0387047 0.020841,-0.008932 0.0446593,-0.0148865 0.0684777,-0.0178637 -0.002977,-0.008932 -0.005955,-0.0148865 -0.008932,-0.0238183 h 0.0595458 L 0.51507112,0.11015972 0.48827551,0.09825056 0.45850262,0.17566009 H 0.4049114 C 0.3870477,0.14290989 0.3602521,0.11909159 0.3304792,0.10122789 L 0.3930023,0.0387048 0.3721613,0.01786378 0.3007063,0.08931873 c -0.020841,0 -0.0446593,0 -0.0684777,0.0029772 L 0.1607736,0.02084105 0.1399326,0.04168208 0.2024557,0.10420516 C 0.1697055,0.12206886 0.1458872,0.14588726 0.1280235,0.17863746 H 0.07443224 l -0.02977289,-0.0774095 -0.02679561,0.0119092 0.03572747,0.0952733 h 0.0595458 C 0.09825055,0.24711503 0.08931868,0.28581981 0.08931868,0.32750187 H 0.0297729 v 0.0297729 h 0.05954579 c 0,0.0297729 0.0059546,0.0595458 0.01488646,0.0893187 H 0.05359121 l -0.03572747,0.0982506 0.02679561,0.008932 0.02977289,-0.0803868 h 0.04168207 c 0.0119091,0.0238183 0.0625231,0.13397807 0.1726828,0.11611433 -0.008932,-0.005954 -0.0148865,-0.0148866 -0.020841,-0.0238183 -0.0863414,0 -0.13100075,-0.10420515 -0.13100078,-0.11909184 z M 0.26795608,0.1161143 c 0.0595458,0 0.11015971,0.0476367 0.13100074,0.11313701 C 0.31261542,0.19947841 0.21436486,0.20543299 0.13100075,0.24711505 0.15184178,0.16970551 0.20543299,0.1161143 0.26795608,0.1161143 Z M 0.70859495,0.68775394 0.58057147,0.55973046 c 0.0625231,-0.0744322 0.0535913,-0.18756925 -0.020841,-0.25009233 -0.0744322,-0.0625231 -0.18756925,-0.0535912 -0.25009233,0.020841 -0.0625231,0.0744322 -0.0535912,0.18756925 0.020841,0.25009231 0.0655004,0.0565685 0.16077365,0.0565685 0.2292513,0 l 0.12802348,0.12802348 c 0.005954,0.005954 0.0148866,0.005954 0.0208411,0 0.005954,-0.005954 0.005954,-0.0148866 -7e-8,-0.020841 z M 0.44659346,0.59843526 c -0.0833641,0 -0.15184178,-0.0684777 -0.15184178,-0.1518418 0,-0.0833641 0.0684777,-0.15184178 0.15184178,-0.15184178 0.0833641,0 0.1518418,0.0684777 0.1518418,0.15184178 0,0.0833641 -0.0684777,0.1518418 -0.1518418,0.1518418 z"
     id="path1"
     style="stroke-width:0.0297729" />
  <path
     fill="none"
     d="M 0,0 H 0.71454954 V 0.71454954 H 0 Z"
     id="path2"
     style="stroke-width:0.0297729" />
</svg>

<svg xmlns="http://www.w3.org/2000/svg" width="24" height="24" viewBox="0 0 0.72 0.72"><path d="M.137.447C.11.369.119.31.122.286A.3.3 0 0 1 .36.247.3.3 0 0 1 .43.23L.419.205h.06L.515.11.488.098l-.03.078H.406A.2.2 0 0 0 .33.1L.393.04.373.018.3.089Q.269.09.232.092L.161.021.14.04l.062.063A.2.2 0 0 0 .128.18H.074L.044.1.019.113l.036.095h.06a.3.3 0 0 0-.025.12H.03v.03h.06q0 .044.015.089h-.05L.018.545l.027.009.03-.08h.041C.128.496.18.606.29.59Q.275.58.268.566C.182.566.137.46.137.446m.131-.33c.06 0 .11.047.131.112a.35.35 0 0 0-.268.018C.151.17.205.117.268.117m.44.57L.582.56A.18.18 0 0 0 .56.31a.18.18 0 0 0-.25.02.18.18 0 0 0 .02.25c.066.057.161.057.23 0L.688.71a.014.014 0 0 0 .02 0 .014.014 0 0 0 0-.021M.448.599A.15.15 0 0 1 .295.447c0-.084.068-.152.152-.152s.151.068.151.152a.15.15 0 0 1-.151.151" style="stroke-width:.0297729"/><path fill="none" d="M0 0h.715v.715H0Z" style="stroke-width:.0297729"/></svg>
